X: 132
T: Miss Aubone Surtees Favorite
C: Abraham Mackintosh
R: reel
M: C|
L: 1/8
Z: 2011 John Chambers <jc:trillian.mit.edu>
B: Abraham Mackintosh "A Collection of Strathspeys, Reels, Jigs &c.", Newcastle, after 1797, p.13
F: http://imslp.info/files/imglnks/usimg/a/a8/IMSLP80796-PMLP164326-Abraham_Mackintosh_coll.pdf
K: D
V: 1
A, |\
D2FD CDB,D | A,DFA {A}G2FE | .D.A.F.d .A.f.d.a | gefd {d}c2BA |
d2df ecaA | B2dB Adfa | gbfa gbag | fedc d3 || g |
fdaf ecBA | dBfd cAGF | BGdB Adfa | gefd {d}c2BA |
d2df ecAc | B2dB AdFA | G2BG FAGB | AGFE D3 |]
V: 2 clef=bass middle=d
z |\
d2d2 f2g2 | f2d2 e2a2 | f2d2 d2f2 | c'2d'2 a3g |
f2d2 a3f | g2g2 f2d2 | g2d2 e2e2 | a2A2 d2D || z |
d2f2 a2A2 | B2d2 f2F2 | G2B2 d2d2 | c2d2 a3g |
f2d2 a2A2 | d2B2 f2F2 | B2G2 d2g2 | a2A2 d2D |]

%%sep 2 1 500

